assets/images/svg/toast_24.svg

<svg width="24" height="24" viewBox="0 0 24 24" fill="none" xmlns="http://www.w3.org/2000/svg">
<path d="M22.6527 6.47486C22.6312 5.88615 22.4493 5.316 22.1267 4.82546C21.6874 4.07961 20.7723 3.02172 18.9048 2.20136C17.09 1.40421 14.7668 1 12 1C9.23312 1 6.90997 1.40421 5.09519 2.20132C3.22768 3.02168 2.31262 4.07957 1.87331 4.82546C1.55061 5.316 1.36872 5.88615 1.34741 6.47181C1.34552 6.51306 1.34436 6.55393 1.34436 6.59419C1.34436 7.94121 2.19308 9.15676 3.45696 9.62056C3.6804 9.70903 3.90839 9.76795 4.13806 9.79665V23H19.862V9.79661C20.0916 9.7679 20.3197 9.70899 20.5431 9.62052C21.807 9.15676 22.6557 7.94117 22.6557 6.59414C22.6556 6.55388 22.6544 6.51306 22.6527 6.47486ZM20.3145 9.00826L20.3058 9.01157C20.0525 9.11237 19.7932 9.16346 19.5352 9.16346H19.2085V22.3465H4.79144V9.1635H4.46471C4.20668 9.1635 3.94741 9.11241 3.69411 9.01161L3.68547 9.0083C2.676 8.6395 1.99779 7.66935 1.99779 6.59419C1.99779 6.56381 1.99869 6.53296 2.00032 6.49875C2.01747 6.02717 2.16377 5.57071 2.42322 5.17867L2.43259 5.16363C3.05138 4.10819 5.22246 1.65347 12 1.65347C18.7775 1.65347 20.9486 4.10819 21.5674 5.16359L21.5768 5.17863C21.8362 5.57067 21.9825 6.02713 21.9998 6.50176C22.0012 6.53291 22.0022 6.56381 22.0022 6.59414C22.0022 7.66931 21.3239 8.63946 20.3145 9.00826Z" fill="black"/>
<path d="M3.5 3.5L1.5 6.5L2.5 8.5L4.5 9.5V22.5H19.5V9.5L21 9L22.5 7L21.5 4.5L19.5 3L15 1.5H8.5L3.5 3.5Z" fill="#E6A982"/>
<path d="M3.5 8H5.5H5.80064V21.2937H18V8H20L21 7.5V6L19 4L15.5 3L11 2.5L8 3L4 4.5L3 6.5L3.5 8Z" fill="#FDD6B5"/>
<path d="M21.347 6.53253L21.3466 6.52226C21.3338 6.17078 21.225 5.83072 21.032 5.53914L21.0038 5.49385C20.6639 4.91424 19.9327 4.08005 18.3792 3.39766C16.7311 2.67372 14.5848 2.30664 12 2.30664C9.41517 2.30664 7.26893 2.67372 5.62077 3.39762C4.06732 4.08 3.33612 4.91424 2.99633 5.49368L2.9681 5.53896C2.77504 5.83068 2.6662 6.17073 2.65344 6.52037L2.65301 6.53064C2.65202 6.55191 2.65125 6.57296 2.65125 6.59376C2.65125 7.3956 3.15699 8.11915 3.90954 8.39402L3.93571 8.40404C4.11188 8.47407 4.28986 8.50965 4.46474 8.50965H5.44494V11.0265H6.09841V7.85627H4.46474C4.37296 7.85627 4.27619 7.83633 4.17784 7.79719L4.13392 7.78039C3.63794 7.59923 3.30471 7.12236 3.30471 6.59385C3.30471 6.58336 3.30519 6.57266 3.30575 6.56003L3.30635 6.54611C3.31477 6.31468 3.38623 6.09116 3.51311 5.89947L3.55991 5.82436C3.85098 5.32799 4.49026 4.60792 5.88357 3.99591C7.44832 3.30854 9.50618 2.96002 11.9999 2.96002C14.4936 2.96002 16.5515 3.30854 18.1163 3.99587C19.5095 4.60787 20.1489 5.32795 20.44 5.82441L20.4868 5.89956C20.6136 6.09107 20.6851 6.31464 20.6936 6.54787L20.6942 6.56179C20.6947 6.57258 20.6951 6.58328 20.6951 6.59376C20.6951 7.12228 20.3619 7.59914 19.8657 7.78039L19.8225 7.79689C19.7236 7.8362 19.6269 7.85618 19.5351 7.85618H17.9014V21.0393H6.09837V11.898H5.4449V21.6928H18.555V8.50978H19.5352C19.7101 8.50978 19.888 8.47429 20.0648 8.40395L20.0902 8.3942C20.8429 8.11924 21.3487 7.39569 21.3487 6.59385C21.3487 6.57301 21.3479 6.552 21.347 6.53253Z" fill="black"/>
<path d="M22.6527 6.47486C22.6312 5.88615 22.4493 5.316 22.1267 4.82546C21.6874 4.07961 20.7723 3.02172 18.9048 2.20136C17.09 1.40421 14.7668 1 12 1C9.23312 1 6.90997 1.40421 5.09519 2.20132C3.22768 3.02168 2.31262 4.07957 1.87331 4.82546C1.55061 5.316 1.36872 5.88615 1.34741 6.47181C1.34552 6.51306 1.34436 6.55393 1.34436 6.59419C1.34436 7.94121 2.19308 9.15676 3.45696 9.62056C3.6804 9.70903 3.90839 9.76795 4.13806 9.79665V23H19.862V9.79661C20.0916 9.7679 20.3197 9.70899 20.5431 9.62052C21.807 9.15676 22.6557 7.94117 22.6557 6.59414C22.6556 6.55388 22.6544 6.51306 22.6527 6.47486ZM20.3145 9.00826L20.3058 9.01157C20.0525 9.11237 19.7932 9.16346 19.5352 9.16346H19.2085V22.3465H4.79144V9.1635H4.46471C4.20668 9.1635 3.94741 9.11241 3.69411 9.01161L3.68547 9.0083C2.676 8.6395 1.99779 7.66935 1.99779 6.59419C1.99779 6.56381 1.99869 6.53296 2.00032 6.49875C2.01747 6.02717 2.16377 5.57071 2.42322 5.17867L2.43259 5.16363C3.05138 4.10819 5.22246 1.65347 12 1.65347C18.7775 1.65347 20.9485 4.10819 21.5674 5.16359L21.5768 5.17863C21.8362 5.57067 21.9825 6.02713 21.9998 6.50176C22.0012 6.53291 22.0022 6.56381 22.0022 6.59414C22.0022 7.66931 21.3239 8.63946 20.3145 9.00826Z" fill="black"/>
<path d="M11.5 9L14.5 12.5" stroke="black" stroke-width="0.4" stroke-linecap="round"/>
<path d="M11 11L14 14.5" stroke="black" stroke-width="0.4" stroke-linecap="round"/>
<path d="M16.4064 17.4473L16.4064 21.3877" stroke="black" stroke-width="0.4" stroke-linecap="round"/>
<path d="M14.9161 19.4316L14.9161 21.2737" stroke="black" stroke-width="0.4" stroke-linecap="round"/>
<path d="M9 11L12 14.5" stroke="black" stroke-width="0.4" stroke-linecap="round"/>
</svg>

<svg xmlns="http://www.w3.org/2000/svg" width="24" height="24" fill="none">
    <path fill="#000"
        d="M22.65 6.47a3.21 3.21 0 0 0-.52-1.64A6.7 6.7 0 0 0 18.9 2.2C17.1 1.4 14.77 1 12 1c-2.77 0-5.09.4-6.9 1.2a6.7 6.7 0 0 0-3.23 2.63 3.21 3.21 0 0 0 1.59 4.8c.22.08.45.14.68.17V23h15.72V9.8a3.23 3.23 0 0 0 2.8-3.32Zm-2.34 2.54c-.26.1-.52.15-.77.15h-.33v13.19H4.79V9.16h-.33a2.58 2.58 0 0 1-2.04-3.98l.01-.02c.62-1.05 2.8-3.5 9.57-3.5 6.78 0 8.95 2.45 9.57 3.5v.02A2.56 2.56 0 0 1 20.32 9Z" />
    <path fill="#E6A982" d="m3.5 3.5-2 3 1 2 2 1v13h15v-13L21 9l1.5-2-1-2.5-2-1.5L15 1.5H8.5l-5 2Z" />
    <path fill="#FDD6B5" d="M3.5 8h2.3v13.3H18V8h2l1-.5V6l-2-2-3.5-1-4.5-.5L8 3 4 4.5l-1 2L3.5 8Z" />
    <path fill="#000"
        d="M21.35 6.53a1.9 1.9 0 0 0-.32-1L21 5.5a5.41 5.41 0 0 0-2.62-2.1c-1.65-.72-3.8-1.08-6.38-1.08s-4.73.36-6.38 1.09A5.41 5.41 0 0 0 3 5.5l-.03.04c-.2.3-.3.63-.32.98V6.59c0 .8.5 1.53 1.26 1.8l.03.01c.17.07.35.11.52.11h.98v2.52h.66V7.86H4.46a.78.78 0 0 1-.28-.06l-.05-.02c-.5-.18-.83-.66-.83-1.19v-.04c.01-.24.09-.46.21-.65l.05-.08c.3-.5.93-1.21 2.32-1.82A15.42 15.42 0 0 1 12 2.96c2.5 0 4.55.35 6.12 1.04a4.78 4.78 0 0 1 2.32 1.82l.05.08c.12.2.2.41.2.65v.01a1.27 1.27 0 0 1-.83 1.22l-.04.02c-.1.04-.2.06-.28.06H17.9v13.18H6.1V11.9h-.66v9.8h13.11V8.5h.99c.17 0 .35-.04.52-.1l.03-.02a1.92 1.92 0 0 0 1.26-1.86Z" />
    <path fill="#000"
        d="M22.65 6.47a3.21 3.21 0 0 0-.52-1.64A6.7 6.7 0 0 0 18.9 2.2C17.1 1.4 14.77 1 12 1c-2.77 0-5.09.4-6.9 1.2a6.7 6.7 0 0 0-3.23 2.63 3.21 3.21 0 0 0 1.59 4.8c.22.08.45.14.68.17V23h15.72V9.8a3.23 3.23 0 0 0 2.8-3.32Zm-2.34 2.54c-.26.1-.52.15-.77.15h-.33v13.19H4.79V9.16h-.33a2.58 2.58 0 0 1-2.04-3.98l.01-.02c.62-1.05 2.8-3.5 9.57-3.5 6.78 0 8.95 2.45 9.57 3.5v.02A2.56 2.56 0 0 1 20.32 9Z" />
    <path stroke="#000" stroke-linecap="round" stroke-width=".4"
        d="m11.5 9 3 3.5M11 11l3 3.5M16.4 17.45v3.94M14.92 19.43v1.84M9 11l3 3.5" />
</svg>
